theme/icons/controller.svg

<svg fill="none" height="24" width="24" xmlns="http://www.w3.org/2000/svg"><g fill="#f4f4f7"><path d="m14.828 6.343 1.415-1.414-4.243-4.243-4.243 4.244 1.415 1.414 2.828-2.829zm-9.899 9.9 1.414-1.415-2.828-2.828 2.828-2.828-1.413-1.415-4.244 4.243zm2.828 2.828 4.243 4.243 4.243-4.243-1.415-1.414-2.828 2.828-2.828-2.828zm9.9-9.899 2.828 2.828-2.828 2.828 1.414 1.415 4.243-4.243-4.244-4.243z"/><path clip-rule="evenodd" d="m12 8a4 4 0 1 1 0 8 4 4 0 0 1 0-8zm0 2a2 2 0 1 1 0 4 2 2 0 0 1 0-4z" fill-rule="evenodd"/></g></svg>

<svg fill="none" height="24" width="24" xmlns="http://www.w3.org/2000/svg">
    <g fill="#f4f4f7">
        <path d="m14.828 6.343 1.415-1.414L12 .686 7.757 4.93l1.415 1.414L12 3.515zm-9.899 9.9 1.414-1.415L3.515 12l2.828-2.828L4.93 7.757.686 12zm2.828 2.828L12 23.314l4.243-4.243-1.415-1.414L12 20.485l-2.828-2.828zm9.9-9.899L20.485 12l-2.828 2.828 1.414 1.415L23.314 12 19.07 7.757z"/>
        <path clip-rule="evenodd" d="M12 8a4 4 0 1 1 0 8 4 4 0 0 1 0-8zm0 2a2 2 0 1 1 0 4 2 2 0 0 1 0-4z" fill-rule="evenodd"/>
    </g>
</svg>
